Numix-Light/24/status/nm-tech-edge.svg

<svg xmlns="http://www.w3.org/2000/svg" viewBox="0 0 24 24">
 <g>
  <path d="m 21 21 0 -16 -16 16" style="fill:#353535;fill-opacity:1;stroke:none;fill-rule:evenodd"/>
  <path d="m 3 3 0 10 6 0 0 -2 -4 0 l 0 -2 3 0 0 -2 -3 0 0 -2 4 0 0 -2" style="fill:#353535;fill-opacity:1;stroke:none;fill-rule:evenodd"/>
 </g>
</svg>

<?xml version="1.0" encoding="UTF-8" standalone="no"?>
<svg
   xmlns:dc="http://purl.org/dc/elements/1.1/"
   xmlns:cc="http://creativecommons.org/ns#"
   xmlns:rdf="http://www.w3.org/1999/02/22-rdf-syntax-ns#"
   xmlns:svg="http://www.w3.org/2000/svg"
   xmlns="http://www.w3.org/2000/svg"
   xmlns:sodipodi="http://sodipodi.sourceforge.net/DTD/sodipodi-0.dtd"
   xmlns:inkscape="http://www.inkscape.org/namespaces/inkscape"
   viewBox="0 0 24 24"
   id="svg2"
   version="1.1"
   inkscape:version="0.91 r"
   sodipodi:docname="nm-tech-edge.svg">
  <metadata
     id="metadata16">
    <rdf:RDF>
      <cc:Work
         rdf:about="">
        <dc:format>image/svg+xml</dc:format>
        <dc:type
           rdf:resource="http://purl.org/dc/dcmitype/StillImage" />
        <dc:title />
      </cc:Work>
    </rdf:RDF>
  </metadata>
  <defs
     id="defs14" />
  <sodipodi:namedview
     pagecolor="#ffffff"
     bordercolor="#666666"
     borderopacity="1"
     objecttolerance="10"
     gridtolerance="10"
     guidetolerance="10"
     inkscape:pageopacity="0"
     inkscape:pageshadow="2"
     inkscape:window-width="1920"
     inkscape:window-height="1056"
     id="namedview12"
     showgrid="true"
     inkscape:zoom="19.666667"
     inkscape:cx="15.060839"
     inkscape:cy="17.641988"
     inkscape:window-x="0"
     inkscape:window-y="24"
     inkscape:window-maximized="1"
     inkscape:current-layer="svg2">
    <inkscape:grid
       type="xygrid"
       id="grid4149" />
  </sodipodi:namedview>
  <g
     id="g4217">
    <path
       style="fill:#353535;fill-opacity:1;fill-rule:evenodd;stroke:none;stroke-width:1px;stroke-linecap:butt;stroke-linejoin:miter;stroke-opacity:1"
       d="M 21,21 21,4.9999996 5,21 Z"
       id="path4139-8"
       inkscape:connector-curvature="0"
       sodipodi:nodetypes="cccc" />
    <g
       transform="matrix(-1,0,0,1,-11.253709,-13.565582)"
       id="g4169"
       style="font-style:normal;font-variant:normal;font-weight:bold;font-stretch:normal;font-size:12.34567928px;line-height:125%;font-family:Ubuntu;-inkscape-font-specification:'Ubuntu Bold';letter-spacing:0px;word-spacing:0px;fill:#000000;fill-opacity:1;stroke:none;stroke-width:1px;stroke-linecap:butt;stroke-linejoin:miter;stroke-opacity:1" />
    <path
       sodipodi:nodetypes="ccccccccccccc"
       inkscape:connector-curvature="0"
       id="path4140"
       d="m 3,3 0,10 6,0 0,-1.999999 -4,0 L 5,9 8,9 8,7 5,7 5,5 9,5 9,3 Z"
       style="fill:#353535;fill-opacity:1;fill-rule:evenodd;stroke:none;stroke-width:1px;stroke-linecap:butt;stroke-linejoin:miter;stroke-opacity:1" />
  </g>
</svg>
